X: 61
T: The Wizard's Walk
C: Jay Ungar
O: West Hurley, New York
%R: reel
Z: Collected and edited 2014 by John Chambers <jc:trillian.mit.edu>
B: GEMS The Best of the Country Dance and Song Society Diamond Jubilee Music, Dance and Song Contest 1993 p.84
M: C|
L: 1/8
K: Em
% - - - - - - - - - - - - - - - - - - - - - - - - -
"A1"[|\
"Em"e2dc BAGF | GAFG E2B2 |\
"Em"e3f gfef | "Em"ga"B7"fg "Em"e4 |\
"Am"a2gf edcB | cdBc A2E2 |
"Am"A3B cBAB | "Am"cd"E7"Bc "Am"A4 \
"A2"|]|\
"B7"BBfB BfBB | "C"ccgc cgcc |\
"B7"BBfB BfBB | "C(Am)"ccgc cgcc |
"B7"[fB]BBB "C"[gc]ccc | "B7"[fB]BB "C"[gc]ccc |\
"B7"[fB]B^cc ^ddee | ffgg aabb \
"B"|:\
"Em"egbe bgeg | "B7"^dfbf bfdf |
"D"=dfaf afdf | "A"^ceae aece |\
"C"=cege gece | "Em"Bege geBe |\
"Edim"_Bege geBe | "B7sus4"=Bege "B7"f"D.C. al Coda"e^df :|
"Coda"[|\
"Em"e2dc BAGF | "Em"G2e2 "B7"F2^d2 |\
"Em"e4 B2G2 | D8 |]\
y4y4 y4y4 y4y4 y4y4 y4y4 y4y4 y4y4 y4y4
% - - - - - - - - - - - - - - - - - - - - - - - - -

